X: 1
T: Campbell's Farewell To Red Gap
M: 4/4
L: 1/8
Z: http://www.thesession.org/tunes/display/2303
R: reel
K: Amix
E|:A2 AB c2 cd|e2 a2 e2 d2|c2 A2 A2 Bc|d2 dc G2 B2|
A2 AB cBcd|e2 a2 e2 d2|c2 BA G2 B2|1A4-A2 D2:|2A4-A2 gf||
e2 a2 a2 gf|e2 a2 a2 d2|c2 A2 A2 Bc|d2 dc G2 gf|e2 a2 a2 gf|
e2 a2 a2 d2|c2 BA G2 B2|A4-A2 gf|e2 a2 a2 gf|e2 a2 a2 d2|
c2 A2 A2 Bc|d2 dB G2 B2|A2 aB AB c/B/c/d/|e2 a2 e2 d2|c2 BA G2 B2|A4-A2 f2|
|:e2 e2 e2 f2|g4 f2 e2|d2 B2 G2 B2|d2 B2 d2 g2|
e2 e2 e2 f2|g4 f2 e2|d2 B2 g2B2|1B2 A2 A2 f2:|2B2 A2 A2||

